X:107
%%etbk:tnset id:38,pos:1,rep:3x,ant:
%%etbk:wsite http://www.thesession.org/tunes/display/3147
%%etbk:pldat 2015-07-22T17:05,2014-03-19T19:22,2013-12-11T19:01,2013-11-13T15:53
T: Turnpike Gate, The
Z: Piano Box Version by Martin Fleischmann
H: Created 2013-02-19 /  Last Modified 2013-02-19
M: 4/4
L: 1/8
R: reel
K: Gmaj
|: "G"!3!G!2!E!1!DE !3!G3!5!B | "D"!4!ADED ADED | "G"!3!GED!2!E !1!GA!3!B!4!d |1 !5!e!3!B!4!d!3!B "D"!2!AcBA:|2 !5!e!3!B!4!d!3!B !1!G3!2!f||
"G"!3!g{a}!3!g!3!g!5!b "D"!4!a3b | "G"!3!g2bg ag!1!ef | !3!g!2!g!3!gb "D"!4!a3!1!d | !5!g!3!e!2!d!1!B !1!A2!1!B!2!d |
"G"!5!!3!g3b "D"a3b | "G"!3!g2bg !4!a!3!g!1!e!2!d | "C"!3!e3e {f}ed!1!B!2!d | "D"!5!g!3!e!2!d!1!B !2!AABA ||


